X:11
T:Brown Donkey, The
R:reel
C:Henrik Norbeck
H:September 1992
M:C|
K:D
AGFA GE~E2|FEDF EFGE|AFGA GE~E2|1 cdeg fedB:|2 cdec d2de||
|:fedf ec~c2|ABce afge|1 fedf ec~c2|ABcA d2de:|2 fedf edcB|ABcd efdB||

